X: 08086
T: PADDY and THE CHIEFTAINS
C: Bob McQuillen 3 Apr 90
B: Bob's Note Book 8 #86
%R: march
Z: 2021 John Chambers <jc:trillian.mit.edu>
M: C
L: 1/8
K: D
B2 \
| "D"A2F2 D3E | F2 A4 B2 | A3F D2F2 | "A7"E6 FG | "D"ABAF D2E2 | "Bm"F2B2 B3c | "D"d3c B2A2 | "G6"B6 c2 |
| "D"d3e f2d2 | "G6"B2A2 B2dB | "D"A2F2 E2FE | "Bm"D2B,2 B,2A,2 | "D"D3E F2A2 | "G"B2A2 "G6"B2dB | "D"A2F2 "A7"E2FE | "D"D6 :|
|: de \
| "D"fded "G"B2dB | "D"A2F2 F2BA | FEDF E2GF | "Bm"D2B,2 B,2A,B, | "D"D2A,2 D2E2 | "Bm"F2B2 B3c | "D"d3e f2d2 | "A7"e6 de |
| "D"fded "G"B2dB | "D"A2F2 F2BA | FEDF A2BA | "Bm"F2B2 B2A2 | "D"d2cB "G"A2A2 | "D"d2cB "G6"A2G2 | "A7"F2GF E2E2 | "D"D6 :|
%%begintext align
%% It's
%% always such a treat when the Chieftains
%% get up into New England. We sure do
%% love their wonderful music -- Hope
%% they come again soon!
%%endtext

%%sep 1 1 500

%%sep 1 1 500

